X:1
T:Dissi a l'amata e mia lucida stella
T:Adrian Willaert  ( 1490ca-1562 )
T:Versi di Francesco Petrarca
T:Io amai sempre, et amo forte anchora
C:Luca Marenzio
%%score [ 1 2 3 4 ]
L:1/8
Q:1/4=96
M:2/2
K:F
V:1 treble-8 nm="T 1"
V:2 treble-8 nm="T 2"
V:3 treble-8 nm="T 3"
V:4 bass nm="B"
V:1
 d6 d2 | d8 | c8 | G4 z2 c2 | d4 d2 d2- | d2 A2 c4- | c4 d4 | z2 d2 d4 | f2 f2 e2 e2- | e2 g4 f2- | %10
w: Io a-|mai|sem-|pre, et|a- mo for-|* te\_an- cho-|* ra,|et son|per a- mar più|_ di gior-|
 f2 d2 e4 | f2 f2 g4- | g2 g2 _e4 | d4 z2 d2 | d2 d2 B4- | B2 G2 _e4 | d8 | z2 d2 d2 d2 | d6 d2 | %19
w: * no\_in gior-|no quel dol-|* ce lo-|co, o-|ve pian- gen-|* do tor-|no,|o- ve pian-|gen- do|
 c4 c2 A2 | B2 B2 B4 | G4 d4- | d2 G2 B2 A2- | AG G4 ^F2 | G4 z2 d2 | d2 d2 d2 d2 | c4 c2 A2 | %27
w: tor- no spes-|se fi- a-|te, quan-|* do\_a- mor m'ac-|* * * co-|ra, o-|ve pian- gen- do|tor- no spes-|
 B2 B2 B4 | G4 d4- | d2 G2 A2 A2 | B4 A4 | z2 c4 c2 | c4 d4- | d2 d2 d4 | z8 | e6 e2 | f8 | f6 f2 | %38
w: se fi- a-|te, quan-|* do\_a- mor m'ac-|co- ra,|Et son|fer- mo|_ d'a- mar||Et son|fer-|mo d'a-|
 e4 e2 g2- | gf e2 d2 e2- | (ec f4 e2) | f6 d2 | d2 d2 g4 | f2 f2 d2 d2- | d2 f2 _e4 | %45
w: ma- r'il tem-|* * * po\_et l'ho-||ra, ch'o-|gni vil cu-|ra mi le- var|_ d'in- tor-|
 d2 d2 d2 d2 | d4 G4 | z2 A2 A2 A2 | d4 c2 c2 | A2 d4 c2 | B4 A4- | A4 z2 d2 | e2 g2 f4 | %53
w: no, ch'o- gni vil|cu- ra|ch'o- gni vil|cu- ra mi|le- var d'in-|tor- no,|_ et|più co- lei,|
 z2 d2 d2 f2 | e4 f2 d2- | (d2 ^c2) d4 | z2 f2 e2 d2 | c2 f4 e2- | e2 f2 (gfed | e2) f4 d2- | %60
w: lo cui bel|vi- so\_a- dor-|* * no,|et più co-|lei, lo cui|_ bel vi- * * *|* so\_a- dor-|
 d2 ^c2 z2 d2 | d2 f4 f2 | f2 e3 f g2- | g2 d4 f2- | fe d4 c2 | B4 A4 | d4 c2 c2- | c2 c2 G2 B2- | %68
w: * no di|ben far co'|suoi\_e- sem- * *|* pli m'in-|* * * na-|mo- ra,|di ben far|_ co' suoi\_e- sem-|
 BA G2 F2 B2- | B2 A2 d4 | d16 |] e8 | e4 e2 f2- | f2 f2 f4 | f4 z2 d2- | d2 d2 d4 | c4 A4 | %77
w: * * * pli m'in-|* na- mo-|ra.|Ma|chi pen- sò|* ve- der|mai tut-|* * sie-|me per|
 F2 F2 B2 B2 | G2 g4 f2- | fedc d2 _e2- | e2 d3 c/B/ c2 | d4 A4- | A2 A4 B2- | B2 B4 c2 | d4 d4 | %85
w: as- sa- lir- m'il|cor hor quin||* quin * * *|ci, que-|* sti dol-|* ci ni-|mi- ci,|
 d6 d2 | d4 c2 A2- | A2 d4 c2 | A2 A2 c4 | c4 z2 d2- | d2 d2 c4 | B2 G2 g4 | f2 d4 f2 | d3 e f4 | %94
w: que- sti|dol- ci ni-|* mi- ci,|ch'i tan- t'a-|mo? que-|* sti dol-|ci ni- mi-|ci, ch'i tan-|t'a * *|
 f8- | f4 z4 | d8- | d4 f4- | f4 e4 | e4 e2 f2- | f2 g2 f2 f2 | f3 e d4 | ^c4 z4 | ^c8 | d8- | %105
w: mo?||A-|* mor,|* con|quan- to sfor-|* * gi mi|vin * *|ci!|A-|mor,|
 d4 z2 d2 | d2 A2 d4 | d2 f2 f2 e2- | ed d4 ^c2 | d8 | z2 e4 e2 | f2 f4 f2 | f4 f4 | B2 c2 d4 | %114
w: * con|quan- to sfor-|* gi mi vin-||ci!|Et se|non ch'ai de-|sio cre-|sce la spe-|
 _e4 d4- | d4 z2 f2- | ff f2 f2 d2 | z2 d3 d d2 | d2 G2 z2 g2- | gg c2 d2 d2 | d8 | d8 | %122
w: * me,|* i'|* ca- drei mor- to|i' ca- drei|mor- to o-|* ve più vi- ver|bra-|mo,|
 z2 f3 f f2 | f2 d2 z2 d2- | dd d2 d2 G2 | z2 g3 g c2 | d2 d2 c4 | =B8 |] %128
w: i' ca- drei|mor- to i'|* ca- drei mor- to|o- ve più|vi- ver bra-|mo.|
V:2
 B6 B2 | A4 A4- | A4 G4 | z4 G4 | B6 B2 | A2 F2 G4 | A4 B4- | B4 z2 F2 | F4 c2 c2 | c2 c4 c2 | %10
w: Io a-|mai sem-|* pre,|et|a- mo|for- te\_an- cho-|* ra,|_ et|son per a-|mar più di|
 d2 A2 c4 | d4 G4 | B4 c2 c2 | B4 F4 | z2 B2 B2 G2 | B2 B2 c4 | F4 z2 F2 | G2 G2 F4- | F2 D2 B4 | %19
w: gior- no\_in gior-|* no|quel dol- ce|lo- co,|o- ve pian-|gen- do tor-|no, o-|ve pian- gen-|* do tor-|
 A2 A2 G2 F2 | D4 D2 d2- | d2 c2 B2 A2 | B3 c d4 | d4 z4 | B4 B2 A2 | B2 F2 B4 | A2 A2 G2 F2 | %27
w: no spes- se fi-|a- te, quan-|* do\_a- mor m'ac-|co- * *|ra,|o- ve pian-|gen- do tor-|no spes- se fi-|
 D4 D2 d2- | d2 c2 B2 A2 | B3 c d4- | d4 D4 | z2 E4 E2 | E4 F4 | F2 G2 G2 F2 | F2 F4 E2 | %35
w: a- te, quan-|* do\_a- mor m'ac-|co- * *|* ra,|Et son|fer- mo|d'a- ma- r'il tem-|po\_et l'ho- ra,|
 z2 c2 c3 B | A2 d2 c4 | d4 A4 | c6 c2 | G3 A =B2 c2 | c2 A2 z2 c2 | c2 c2 d4 | G2 A2 B2 c2 | %43
w: il tem- *|* po\_et l'ho-|ra, d'a-|ma- r'il|tem- * * po\_et|l'ho- ra, ch'o-|gni vil cu-|ra ch'o- gni vil|
 d4 B2 B2 | G2 d4 c2 | B8 | A4 z2 c2 | (cBAG F2) E2 | F2 D2 F2 E2 | (D3 EFG A2) | D2 d4 ^c2 | %51
w: cu- ra mi|le- var d'in-|tor-|no, ch'o-|gni _ _ _ _ vil|cu- ra mi le-|var _ _ _ _|d'in- tor- *|
 d4 z2 B2 | A2 G2 d2 d2 | c2 B2 A3 G/F/ | G2 A2 D4 | E4 z2 G2 | F2 D2 A4- | A2 F2 c4- | %58
w: no, et|più co- lei, lo|cui bel vi- * *|* so\_a- dor-|no et|più co- lei,|_ lo cui|
 c2 A2 c2 G2 | c4 F4 | z2 A4 A2 | B4 B2 A2 | c6 G2- | G2 B4 c2 | F3 G A2 A2 | z2 D2 D2 F2- | %66
w: _ bel vi- so\_a-|dor- no|di ben|far co' suoi\_e-|sem- pli|_ m'in- na-|mo- * * ra,|di ben far|
 F2 F2 F2 E2- | EF G4 D2- | D2 B3 A- G2- | G2 F2 G4 | ^F16 |] G8 | G4 G2 A2- | A2 B2 B4 | B4 F4- | %75
w: _ co' suoi\_e- sem-|* * * pli|_ m'in- * *|* na- mo-|ra.|Ma|chi pen- sò|* ve- der|mai tut-|
 F2 G2 F4 | E2 c2 c2 c2 | d6 d2 | c8 | F4 A2 c2 | B3 A G4 | F4 F4- | F2 D2 D4 | _E2 E2 E4 | %84
w: * * sie-|me per as- sa-|lir- m'il|cor|hor quin *|quin * *|ci, que-|* sti dol-|ci ni- mi-|
 D2 F4 G2 | G4 F2 F2 | D4 E2 F2- | F2 F4 A2- | AG F4 E2 | F4 F4- | F2 G2 _E4 | D2 d2 B2 c2 | %92
w: ci, que- sti|dol- ci ni-|mi- ci, ch'i|* tan- t'a-||mo? que-|* sti dol-|ci ni- mi- ci,|
 dcBA G2 A2 | B4 c4 | d8- | d8 | z4 B4- | B4 A4 | d4 c4 | G2 c4 A2 | d2 d2 d4 | A8- | A8 | z4 A4- | %104
w: ch'i * * * * tan-|t'a *|mo?||A-|* mor,|con quan-|to sfor- *|gi mi vin|ci!||A-|
 A4 B4 | z2 B2 F2 B2 | AGFE D2 B2- | Bc d2 c2 c2 | A4 A4 | F6 B2 | G4 z2 c2 | A2 d4 c2 | A2 A4 d2 | %113
w: * mor,|con quan- to|sfor- * * * * *|* * * gi mi|vin- ci!|Et se|non Et|se non ch'ai|de- sio cre-|
 G2 G2 A3 B | c4 G4 | z2 d3 d d2 | d4 A4 | z2 B3 B B2 | B4 G2 z G- | GG A2 F2 B2 | A4 B4 | %121
w: sce la spe- *|* me,|i' ca- drei|mor- to|i' ca- drei|mor- to o-|* ve più vi- ver|bra- *|
 G4 z2 d2- | dd d2 d4 | A4 z2 B2- | BB B2 B4 | G2 z G2 G A2 | F2 B2 G4 | G8 |] %128
w: mo, i'|* ca- drei mor-|to i'|* ca- drei mor-|to o- ve più|vi- ver bra-|mo.|
V:3
 G6 G2 | F8 | E6 E2 | z2 E2 E4 | G4 F4 | F2 F4 E2 | F4 z2 F2 | F4 B2 B2 | A2 A4 G2 | G2 E2 G2 A2- | %10
w: Io a-|mai|sem- pre,|et a-|mo for-|te\_an- cho- *|ra, et|son per a-|mar più di|gior- no\_in gior- no|
 A2 GF G2 G2 | B6 B2 | G8 | G4 z2 D2 | F2 F2 G4- | G2 G2 G4 | B8 | z2 B2 A2 A2 | B2 F2 G4 | %19
w: _ _ _ _ quel|dol- ce|lo-|co, o-|ve pian- gen-|* do tor-|no,|o- ve pian-|gen- do tor-|
 E2 E4 F2 | F2 F3 G F2 | _E4 D4 | z2 G4 F2 | B2 B2 A4 | G4 z2 F2 | F2 D2 G2 G2 | E4 E2 F2 | %27
w: no spes- se|_ fi- a- *|* te,|quan- do\_a-|mor m'ac- co-|ra, o-|ve pian- gen- do|tor- no spes-|
 F2 F2 (G3 F | _E4) D4 | z4 F4 | D2 G4 F2 | G2 G2 z2 G2- | G2 G2 B4 | B6 B2 | A4 A2 c2- | %35
w: se fi- a- *|* te,|quan-|do\_a- mor m'ac-|co- ra, Et|_ son fer-|mo d'a-|ma- r'il tem-|
 cB A2 G2 A2- | AF B4 A2 | B4 z2 F2 | A2 A2 G2 E2 | E4 G2 G2 | A2 F2 G4 | A2 A2 A2 B2- | %42
w: * * * po\_et l'ho-||ra, d'a-|ma- r'il tem- po\_et|l'ho- ra, ch'o-|gni vil cu-|ra mi le- var|
 B2 A2 (G3 A | B2 A2) G4 | z8 | G4 D2 G2 | F4 E2 E2 | E2 (F3 G A2- | A2) G2 A4 | F2 F2 D2 F2- | %50
w: * d'in- tor- *|* * no,||ch'o- gni vil|cu- ra mi|le- var _ _|_ d'in- tor-|no, mi le- var|
 F2 G2 E4 | F4 D4 | z4 z2 D2 | E2 G2 FGAB | c2 c2 F2 G2 | A2 A2 B4 | A4 z2 F2 | E2 D2 A2 A2 | %58
w: * d'in- tor-|* no,|et|più co- lei, _ _ _|_ lo cui bel|vi- so\_a- dor-|no et|più co- lei, lo|
 G2 F2 (E3 F | G2) A2 D4 | E2 E2 F2 F2- | F2 D3 EFG | A2 A2 GFED | E2 F2 G2 A2 | D3 E F2 E2 | %65
w: cui bel vi- *|* so\_a- dor-|no di ben far|* co' _ _ _|_ suoi\_e- sem- * * *|* pli m'in- na-|mo- * * ra,|
 G4 F4 | D4 z2 A2 | G2 E4 F2 | G2 D2 D2 d2- | d2 d2 B4 | A16 |] z4 c4- | c4 c4 | c2 d4 d2 | %74
w: di ben|far di|ben far co'|suoi\_e- sem- pli m'in-|* na- mo-|ra.|Ma|* chi|pen- sò ve-|
 d4 d2 B2- | B2 B2 A4 | A2 E4 F2- | F2 D2 F2 G2 | E3 F G2 A2- | A2 A2 F2 G2- | GA B4 AG | %81
w: der mai tut-|* * sie-|me per as-|* sa- lir- m'il|cor * * hor|* quin * quin||
 B2 A3 GFE | D2 F4 F2 | G4 G2 G2 | F2 D4 B2- | B2 B2 B4 | F2 G2 A4 | D2 D4 E2 | F4 G4 | A4 z2 B2- | %90
w: * ci, * * *|* que- sti|dol- ci ni-|mi- ci, que-|* sti dol-|ci ni- mi-|ci, ch'i tan-|t'a- *|mo? que-|
 B2 B2 G4 | G2 B2 G4 | A2 B2 B2 d2- | dc B4 A2 | B8 | z4 F4- | F4 G4 | z2 D3 EFG | A2 A4 E2- | %99
w: * sti dol-|ci ni- mi-|ci, ch'i tan- t'a||mo?|A-|* mor,|con * * *|* quan- to|
 E2 G4 F2 | D2 B2 A3 G | F8 | E4 z4 | E8 | F4 z2 G2 | F4 D4 | F6 G2 | F2 D2 A3 G | F4 E4 | %109
w: * sfor- *|gi mi vin *||ci!|A-|mor, con|quan- to|sfor- *|gi mi vin- *|* ci!|
 z2 D4 G2 | E4 G2 A2 | A2 B4 A2 | c2 d3 c B2- | BA G4 ^F2 | G4 z2 B2- | BB B2 B2 A2 | z2 A3 F F2 | %117
w: Et se|non ch'ai de-|sio cre- sce|la spe- * *||me, i'|* ca- drei mor- to|i' ca- drei|
 F2 D2 z2 G2- | GG D2 E4 | E2 F3 D G2- | G2 F2 G4 | z2 B3 B B2 | B2 A2 z2 A2- | AF F2 F2 D2 | %124
w: mor- to o-|* ve più vi-|ver bra- * *|* * mo,|i' ca- drei|mor- to i'|* ca- drei mor- to|
 z2 G3 G D2 | E6 F2 | D4 _E4 | D8 |] %128
w: o- ve più|vi- ver|bra- *|mo.|
V:4
 G,,6 G,,2 | D,8 | A,,3 B,, C,2 C,2 | z2 C,2 C,2 C,2 | G,,2 G,,2 B,,3 C, | D,4 C,4 | z4 B,,4 | %7
w: Io a-|mai|sem- * * pre,|et a- mo|for- te\_an- cho- *|* ra,|et|
 B,,4 G,,A,,B,,C, | D,2 D,2 A,,2 C,2- | C,2 C,2 E,2 F,2 | D,4 C,4 | B,,4 _E,4 | _E,2 E,2 C,4 | %13
w: son per _ _ _|_ a- mar più|_ di gior- no\_in|gior- *|no quel|dol- ce lo-|
 G,,4 z2 B,,2 | B,,2 B,,2 _E,4- | E,2 _E,2 C,4 | B,,4 z2 B,,2 | G,,2 G,,2 D,3 C, | B,,2 B,,2 G,,4 | %19
w: co, o-|ve pian- gen-|* do tor-|no, o-|ve pian- gen- *|* do tor-|
 A,,2 A,,2 C,2 D,2 | B,,4 G,,4 | z2 G,4 ^F,2 | G,2 _E,2 D,2 D,2 | z4 D,4 | _E,2 E,2 D,3 C, | %25
w: no spes- se fi-|a- te,|quan- do\_a-|mor m'ac- co- ra,|o-|ve pian- gen- *|
 B,,2 B,,2 G,,4 | A,,2 A,,2 C,2 D,2 | B,,4 G,,4 | z2 G,4 ^F,2 | G,2 _E,2 D,4 | G,,4 z4 | C,6 C,2 | %32
w: * do tor-|no spes- se fi-|a- te,|quan- do\_a-|mor m'ac- co-|ra,|Et son|
 C,4 B,,4 | B,,2 (G,,3 A,,B,,C, | D,6) A,,2 | A,,3 B,, C,2 A,,2 | D,3 E, F,4 | B,,2 B,,2 D,2 D,2 | %38
w: fer- mo|d'a- ma- * * *|* r'il|tem- * * po\_et|l'ho- * *|ra, d'a- ma- r'il|
 A,,2 A,,2 C,4 | C,4 z2 C,2 | A,,2 D,2 C,4 | F,2 F,2 D,2 G,2- | G,2 F,2 _E,4 | D,4 z4 | z8 | %45
w: tem- po\_et l'ho-|ra, ch'o-|gni vil cu-|ra mi le- var|_ d'in- tor-|no,||
 z2 G,,2 G,,2 G,,2 | D,4 C,2 C,2 | A,,2 D,4 C,2 | B,,4 A,,4 | z2 B,,4 A,,2 | B,,2 G,,2 A,,4 | %51
w: ch'o- gni vil|cu- ra mi|le- var d'in-|tor- no,|mi le-|var d'in- tor-|
 D,4 G,,4 | z4 z2 B,,2 | A,,2 G,,2 D,4 | C,4 B,,2 B,,2 | A,,2 A,,2 G,,4 | D,4 z2 D,2 | %57
w: * no,|et|più co- lei,|lo cui bel|vi- so\_a- dor-|no et|
 A,,2 B,,2 A,,2 A,,2 | C,2 D,2 C,4- | C,2 A,,2 B,,4 | A,,4 D,4 | B,,2 B,,4 D,2 | A,,4 C,4 | %63
w: più co- lei, lo|cui bel vi-|* so\_a- dor-|no di|ben far co'|suoi\_e- sem-|
 C,2 B,,4 A,,2 | B,,4 A,,4 | G,,4 D,4 | B,,4 A,,4 | C,6 B,,2 | G,,2 G,,2 B,,3 C, | D,2 D,2 G,,4 | %70
w: pli m'in- na-|mo- *|ra, di|ben far|co' suoi\_e-|sem- pli m'in- *|* na- mo-|
 D,16 |] C,8 | C,4 C,2 F,2- | F,2 B,,2 B,,4 | B,,4 B,,4- | B,,2 G,,2 D,4 | A,,4 A,,4 | %77
w: ra.|Ma|chi pen- sò|* ve- der|mai tut-|* * sie-|me per|
 B,,2 B,,2 B,,2 G,,2 | C,3 D, E,2 F,2 | D,6 C,2 | G,3 F, _E,4 | D,8- | D,4 z4 | z8 | B,,6 G,,2 | %85
w: as- sa- lir- m'il|cor * * hor|quin *|quin * *|ci,|||que- sti|
 G,,4 B,,2 B,,2 | B,,4 A,,2 D,2- | D,C, B,,4 A,,2 | D,4 C,4 | z4 B,,4- | B,,2 G,,2 C,4 | %91
w: dol- ci ni-|mi- ci, ch'i|* * * tan-|t'a- mo?|que-|* sti dol-|
 G,,2 G,,2 _E,4 | D,2 G,4 D,2 | G,4 F,4 | B,,4 z4 | B,,8- | B,,4 G,,4- | G,,4 z2 D,2 | D,4 A,,4 | %99
w: ci ni- mi-|ci, ch'i tan-|t'a *|mo?|A-|* mor,|* con|quan- to|
 C,6 D,2 | B,,2 G,,2 D,4- | D,8 | A,,4 z4 | A,,8 | D,4 G,,4 | B,,6 G,,2 | D,2 D,2 B,,2 G,,2 | %107
w: sfor- *|gi mi vin||ci!|A-|mor, con|quan- to|sfor- * gi mi|
 B,,4 A,,4 | z4 A,,4 | B,,2 B,,3 A,, G,,2 | C,6 A,,2 | D,2 B,,C, D,E, F,2- | F,2 D,4 D,2 | %113
w: vin- ci!|Et|se non * *|ch'ai de-|sio cre- * * * *|* sce la|
 _E,4 D,4 | C,4 z2 G,2- | G,G, G,2 G,2 D,2 | z2 D,3 D, D,2 | D,2 G,,2 z4 | G,,3 G,, C,2 C,2- | %119
w: spe- *|me, i'|* ca- drei mor- to|i' ca- drei|mor- to|o- ve più vi-|
 C,2 B,,A,, B,,2 G,,2 | D,4 G,,4 | z2 G,3 G, G,2 | G,2 D,2 z2 D,2- | D,D, D,2 D,2 G,,2 | %124
w: * * * * ver|bra- mo,|i' ca- drei|mor- to i'|* ca- drei mor- to|
 z4 G,,3 G,, | C,2 C,4 B,,A,, | B,,2 G,,2 C,4 | G,,8 |] %128
w: o- ve|più vi- * *|* ver bra-|mo.|

